build/img/sprite.svg

<svg xmlns="http://www.w3.org/2000/svg" xmlns:xlink="http://www.w3.org/1999/xlink"><symbol id="arrow-left" viewBox="0 0 18 34"><g fill="none"><path d="M17 1 1 17l16 16" stroke="#AFAFAF"/></g></symbol><symbol id="icon-close" viewBox="0 0 20 20"><g fill="none"><path d="M.293 18.291a1 1 0 101.414 1.414L10 11.413l8.292 8.292a1 1 0 101.414-1.414l-8.292-8.292 8.292-8.292A1 1 0 1018.291.293L9.999 8.585 1.707.293A1 1 0 10.293 1.707L8.585 10 .293 18.291z"/></g></symbol><symbol id="logo" viewBox="0 0 119 23"><path d="M5.768 22.252c-1.176 0-2.196-.18-3.06-.54-.864-.36-1.524-.996-1.98-1.908-.432-.912-.648-2.196-.648-3.852v-1.224h3.528v1.512c0 1.008.096 1.788.288 2.34.192.552.456.936.792 1.152.336.192.72.288 1.152.288.696 0 1.248-.228 1.656-.684.432-.48.648-1.368.648-2.664 0-.96-.144-1.68-.432-2.16-.288-.48-.744-.864-1.368-1.152-.6-.312-1.38-.66-2.34-1.044a9.005 9.005 0 0 1-2.052-1.26A4.416 4.416 0 0 1 .656 9.22C.368 8.476.224 7.552.224 6.448c0-1.344.168-2.436.504-3.276a3.44 3.44 0 0 1 1.8-1.872C3.368.892 4.496.688 5.912.688c1.824 0 3.216.42 4.176 1.26.96.816 1.44 2.016 1.44 3.6v2.484H8.144V6.556c0-1.104-.18-1.896-.54-2.376-.336-.504-.888-.756-1.656-.756-.792 0-1.368.24-1.728.72-.336.456-.504 1.188-.504 2.196 0 .864.168 1.536.504 2.016.336.456.768.816 1.296 1.08.552.264 1.116.504 1.692.72 1.08.408 1.956.828 2.628 1.26a3.822 3.822 0 0 1 1.476 1.728c.312.72.468 1.74.468 3.06 0 1.512-.252 2.712-.756 3.6a4.18 4.18 0 0 1-2.088 1.872c-.888.384-1.944.576-3.168.576Zm15.148.18c-.816 0-1.572-.06-2.268-.18-.696-.12-1.296-.36-1.8-.72s-.9-.9-1.188-1.62c-.288-.72-.432-1.692-.432-2.916V.724h3.456v17.172c0 .648.096 1.152.288 1.512.216.336.492.564.828.684.336.12.708.18 1.116.18.408 0 .78-.06 1.116-.18.336-.12.6-.348.792-.684.216-.36.324-.864.324-1.512V.724h3.42V16.96c0 1.224-.144 2.208-.432 2.952-.264.72-.648 1.26-1.152 1.62-.504.36-1.104.6-1.8.72s-1.452.18-2.268.18ZM30.822 22V.724h7.2c1.344 0 2.376.3 3.096.9.72.6 1.08 1.488 1.08 2.664v3.78c0 .912-.12 1.764-.36 2.556a3.426 3.426 0 0 1-1.296 1.872c-.624.48-1.536.72-2.736.72h-3.384V22h-3.6Zm3.6-10.728h2.196c.72 0 1.26-.276 1.62-.828.36-.576.54-1.5.54-2.772V5.764c0-1.128-.156-1.932-.468-2.412-.312-.48-.744-.72-1.296-.72h-2.592v8.64ZM45.605 22V.724h9.576v2.448h-5.976v6.444h4.931v2.7h-4.931v7.308h5.976V22h-9.576Zm12.848 0V.724h7.344c1.344 0 2.376.3 3.096.9.744.6 1.116 1.488 1.116 2.664v3.384c0 1.176-.324 2.136-.972 2.88-.648.72-1.608 1.116-2.88 1.188.816.072 1.392.336 1.728.792.36.456.684 1.164.972 2.124L70.91 22h-3.816l-1.692-7.092a10.03 10.03 0 0 0-.576-1.584c-.216-.456-.564-.684-1.044-.684h-1.764V22h-3.564Zm3.564-11.772h2.304c.84 0 1.428-.216 1.764-.648.36-.432.54-1.092.54-1.98V4.9c0-.792-.168-1.368-.504-1.728-.312-.36-.804-.54-1.476-.54h-2.628v7.596Zm16.596 12.168A6.64 6.64 0 0 1 76.31 22c-.72-.24-1.308-.732-1.764-1.476-.432-.768-.648-1.908-.648-3.42V5.224c0-1.296.24-2.28.72-2.952.48-.696 1.152-1.164 2.016-1.404.864-.264 1.86-.396 2.988-.396s2.124.132 2.988.396c.864.264 1.536.744 2.016 1.44.504.672.756 1.644.756 2.916v2.88h-3.348V5.08c0-.72-.108-1.26-.324-1.62-.192-.36-.468-.6-.828-.72-.336-.12-.744-.18-1.224-.18-.432 0-.828.06-1.188.18s-.648.36-.864.72c-.192.36-.288.9-.288 1.62v12.78c0 .72.096 1.26.288 1.62.216.36.504.6.864.72s.756.18 1.188.18c.696 0 1.26-.204 1.692-.612.456-.432.684-1.068.684-1.908v-4.32H79.91v-1.98h5.472V22H82.79l-.18-1.8a4.891 4.891 0 0 1-.18.324c-.072.096-.132.18-.18.252-.288.432-.72.816-1.296 1.152-.552.312-1.332.468-2.34.468ZM91.911 22v-9.144L87.951.724h3.42l2.232 7.272.18 1.116L94 7.996 96.34.724h3.204l-4.176 12.312V22h-3.456Zm10.538 0V.724h4.248l3.564 15.12 3.6-15.12h4.212V22h-3.06V5.584L111.449 22h-2.376l-3.564-16.416V22h-3.06Z"/></symbol><symbol id="ok" viewBox="0 0 10 17"><path d="M4.68 2.889c.899 0 1.63.754 1.63 1.682 0 .924-.731 1.679-1.63 1.679-.898 0-1.629-.755-1.629-1.68 0-.927.73-1.681 1.63-1.681Zm0 5.74c2.17 0 3.935-1.82 3.935-4.058C8.615 2.33 6.851.509 4.68.509 2.51.509.748 2.33.748 4.57.748 6.808 2.51 8.63 4.68 8.63Zm1.592 3.314a7.29 7.29 0 0 0 2.284-.978c.538-.349.7-1.084.362-1.64a1.13 1.13 0 0 0-1.59-.374 4.866 4.866 0 0 1-5.297 0 1.127 1.127 0 0 0-1.589.375 1.213 1.213 0 0 0 .363 1.64 7.29 7.29 0 0 0 2.284.977l-2.2 2.269a1.218 1.218 0 0 0 0 1.682c.227.231.52.349.814.349.295 0 .59-.118.818-.35l2.16-2.229 2.162 2.23c.449.466 1.177.466 1.629 0 .45-.464.45-1.219 0-1.682l-2.2-2.269Z"/></symbol><symbol id="reddit" viewBox="0 0 15 15"><g fill="none"><path d="M8.85089 0.555664C8.40551 0.555664 7.98758 0.781596 7.71951 1.10741C7.45144 1.43323 7.30368 1.8304 7.19603 2.24897C7.02506 2.92201 6.97229 3.66877 6.95963 4.34181C5.70793 4.42505 4.57444 4.79606 3.63303 5.36921C3.25098 5.04815 2.79083 4.86978 2.34968 4.87454C1.84731 4.87929 1.37028 5.09571 1.01566 5.54044C0.338103 6.38947 0.416202 7.77836 1.20141 8.60361C1.15286 8.85808 1.11698 9.11969 1.11698 9.38367C1.11698 12.1805 3.97498 14.4446 7.49999 14.4446C11.025 14.4446 13.883 12.1781 13.883 9.38367C13.883 9.11969 13.8471 8.85808 13.7986 8.60361C14.5838 7.77836 14.6619 6.38947 13.9843 5.54044C13.6297 5.09571 13.1527 4.87929 12.6503 4.87454C12.2091 4.86978 11.749 5.04815 11.3669 5.36921C10.4298 4.79843 9.30259 4.42743 8.05723 4.34181C8.07412 3.72109 8.11845 3.07659 8.24298 2.59143C8.32108 2.28702 8.41395 2.06584 8.51316 1.94455C8.61237 1.82326 8.68413 1.77332 8.85089 1.77332C9.21183 1.77332 9.25827 1.88985 9.47568 2.17286C9.58544 2.31556 9.71209 2.49393 9.91472 2.66754C10.1174 2.84115 10.4171 2.99098 10.7421 2.99098V1.77332C10.6514 1.77332 10.6345 1.77094 10.5733 1.71624C10.5121 1.66154 10.4276 1.5355 10.3031 1.37378C10.054 1.04796 9.57066 0.555664 8.85089 0.555664ZM12.3632 0.669819C11.5231 0.669819 10.8435 1.43561 10.8435 2.38215C10.8435 3.32869 11.5231 4.09448 12.3632 4.09448C13.2033 4.09448 13.883 3.32869 13.883 2.38215C13.883 1.43561 13.2033 0.669819 12.3632 0.669819ZM12.3632 1.27865C12.9036 1.27865 13.3426 1.77332 13.3426 2.38215C13.3426 2.99098 12.9036 3.48565 12.3632 3.48565C11.8229 3.48565 11.3838 2.99098 11.3838 2.38215C11.3838 1.77332 11.8229 1.27865 12.3632 1.27865ZM7.49999 5.29311C10.491 5.29311 13.0218 7.16953 13.0218 9.38367C13.0218 11.6002 10.491 13.4742 7.49999 13.4742C4.50901 13.4742 1.97818 11.6002 1.97818 9.38367C1.97818 7.16953 4.50901 5.29311 7.49999 5.29311ZM2.36656 5.84486C2.51643 5.84724 2.67263 5.88529 2.82249 5.95901C2.28002 6.42277 1.84942 6.95549 1.55602 7.55719C1.35339 7.0863 1.40827 6.49887 1.65734 6.18732C1.83887 5.95901 2.09005 5.84248 2.36656 5.84486ZM12.6334 5.84486C12.9099 5.84248 13.1611 5.95901 13.3426 6.18732C13.5917 6.49887 13.6466 7.0863 13.4439 7.55719C13.1506 6.95549 12.72 6.42277 12.1775 5.95901C12.3273 5.88529 12.4835 5.84724 12.6334 5.84486ZM5.33855 7.36693C4.79819 7.36693 4.35914 7.8616 4.35914 8.47043C4.35914 9.07926 4.79819 9.57393 5.33855 9.57393C5.87891 9.57393 6.31795 9.07926 6.31795 8.47043C6.31795 7.8616 5.87891 7.36693 5.33855 7.36693ZM9.66143 7.36693C9.12107 7.36693 8.68202 7.8616 8.68202 8.47043C8.68202 9.07926 9.12107 9.57393 9.66143 9.57393C10.2018 9.57393 10.6408 9.07926 10.6408 8.47043C10.6408 7.8616 10.2018 7.36693 9.66143 7.36693ZM4.81507 11.115C5.15913 11.9165 6.22296 12.6942 7.49999 12.6942C8.77701 12.6942 9.85773 11.9165 10.2018 11.115C9.577 11.5693 8.59126 11.8761 7.49999 11.8761C6.40871 11.8761 5.43986 11.5693 4.81507 11.115Z" fill="#030A1A"/></g></symbol><symbol id="vk" viewBox="0 0 13 8"><path d="M7.723 6.052c.442-.143 1.01.944 1.613 1.36.452.316.8.248.8.248l1.607-.023s.84-.052.444-.72c-.033-.055-.233-.495-1.197-1.4-1.009-.945-.872-.792.342-2.427.74-.997 1.035-1.606.942-1.866-.088-.25-.632-.184-.632-.184l-1.811.012c-.177 0-.326.055-.395.239 0 .002-.287.771-.669 1.425C7.961 4.1 7.64 4.174 7.506 4.087c-.306-.2-.229-.804-.229-1.233 0-1.342.2-1.9-.391-2.045-.198-.049-.343-.08-.847-.085-.645-.01-1.192 0-1.502.153-.206.103-.364.33-.268.342.12.017.39.074.535.272.185.255.18.828.18.828s.106 1.58-.25 1.775c-.245.135-.58-.14-1.298-1.396-.367-.643-.645-1.353-.645-1.353s-.054-.132-.15-.204c-.117-.086-.279-.113-.279-.113l-1.72.01s-.258.008-.353.122c-.084.101-.007.31-.007.31S1.63 4.655 3.155 6.26c1.398 1.474 2.987 1.376 2.987 1.376h.72s.218-.025.329-.144c.103-.111.099-.32.099-.32s-.015-.977.433-1.12Z"/></symbol></svg>

<svg xmlns="http://www.w3.org/2000/svg">
  <symbol id="logo" viewBox="0 0 119 23">
    <g>
      <path d="M5.768 22.252c-1.176 0-2.196-.18-3.06-.54-.864-.36-1.524-.996-1.98-1.908-.432-.912-.648-2.196-.648-3.852v-1.224h3.528v1.512c0 1.008.096 1.788.288 2.34.192.552.456.936.792 1.152.336.192.72.288 1.152.288.696 0 1.248-.228 1.656-.684.432-.48.648-1.368.648-2.664 0-.96-.144-1.68-.432-2.16-.288-.48-.744-.864-1.368-1.152-.6-.312-1.38-.66-2.34-1.044a9.005 9.005 0 0 1-2.052-1.26A4.416 4.416 0 0 1 .656 9.22C.368 8.476.224 7.552.224 6.448c0-1.344.168-2.436.504-3.276a3.44 3.44 0 0 1 1.8-1.872C3.368.892 4.496.688 5.912.688c1.824 0 3.216.42 4.176 1.26.96.816 1.44 2.016 1.44 3.6v2.484H8.144V6.556c0-1.104-.18-1.896-.54-2.376-.336-.504-.888-.756-1.656-.756-.792 0-1.368.24-1.728.72-.336.456-.504 1.188-.504 2.196 0 .864.168 1.536.504 2.016.336.456.768.816 1.296 1.08.552.264 1.116.504 1.692.72 1.08.408 1.956.828 2.628 1.26a3.822 3.822 0 0 1 1.476 1.728c.312.72.468 1.74.468 3.06 0 1.512-.252 2.712-.756 3.6a4.18 4.18 0 0 1-2.088 1.872c-.888.384-1.944.576-3.168.576Zm15.148.18c-.816 0-1.572-.06-2.268-.18-.696-.12-1.296-.36-1.8-.72s-.9-.9-1.188-1.62c-.288-.72-.432-1.692-.432-2.916V.724h3.456v17.172c0 .648.096 1.152.288 1.512.216.336.492.564.828.684.336.12.708.18 1.116.18.408 0 .78-.06 1.116-.18.336-.12.6-.348.792-.684.216-.36.324-.864.324-1.512V.724h3.42V16.96c0 1.224-.144 2.208-.432 2.952-.264.72-.648 1.26-1.152 1.62-.504.36-1.104.6-1.8.72s-1.452.18-2.268.18ZM30.822 22V.724h7.2c1.344 0 2.376.3 3.096.9.72.6 1.08 1.488 1.08 2.664v3.78c0 .912-.12 1.764-.36 2.556a3.426 3.426 0 0 1-1.296 1.872c-.624.48-1.536.72-2.736.72h-3.384V22h-3.6Zm3.6-10.728h2.196c.72 0 1.26-.276 1.62-.828.36-.576.54-1.5.54-2.772V5.764c0-1.128-.156-1.932-.468-2.412-.312-.48-.744-.72-1.296-.72h-2.592v8.64ZM45.605 22V.724h9.576v2.448h-5.976v6.444h4.931v2.7h-4.931v7.308h5.976V22h-9.576Zm12.848 0V.724h7.344c1.344 0 2.376.3 3.096.9.744.6 1.116 1.488 1.116 2.664v3.384c0 1.176-.324 2.136-.972 2.88-.648.72-1.608 1.116-2.88 1.188.816.072 1.392.336 1.728.792.36.456.684 1.164.972 2.124L70.91 22h-3.816l-1.692-7.092a10.03 10.03 0 0 0-.576-1.584c-.216-.456-.564-.684-1.044-.684h-1.764V22h-3.564Zm3.564-11.772h2.304c.84 0 1.428-.216 1.764-.648.36-.432.54-1.092.54-1.98V4.9c0-.792-.168-1.368-.504-1.728-.312-.36-.804-.54-1.476-.54h-2.628v7.596Zm16.596 12.168A6.64 6.64 0 0 1 76.31 22c-.72-.24-1.308-.732-1.764-1.476-.432-.768-.648-1.908-.648-3.42V5.224c0-1.296.24-2.28.72-2.952.48-.696 1.152-1.164 2.016-1.404.864-.264 1.86-.396 2.988-.396s2.124.132 2.988.396c.864.264 1.536.744 2.016 1.44.504.672.756 1.644.756 2.916v2.88h-3.348V5.08c0-.72-.108-1.26-.324-1.62-.192-.36-.468-.6-.828-.72-.336-.12-.744-.18-1.224-.18-.432 0-.828.06-1.188.18s-.648.36-.864.72c-.192.36-.288.9-.288 1.62v12.78c0 .72.096 1.26.288 1.62.216.36.504.6.864.72s.756.18 1.188.18c.696 0 1.26-.204 1.692-.612.456-.432.684-1.068.684-1.908v-4.32H79.91v-1.98h5.472V22H82.79l-.18-1.8a4.891 4.891 0 0 1-.18.324c-.072.096-.132.18-.18.252-.288.432-.72.816-1.296 1.152-.552.312-1.332.468-2.34.468ZM91.911 22v-9.144L87.951.724h3.42l2.232 7.272.18 1.116L94 7.996 96.34.724h3.204l-4.176 12.312V22h-3.456Zm10.538 0V.724h4.248l3.564 15.12 3.6-15.12h4.212V22h-3.06V5.584L111.449 22h-2.376l-3.564-16.416V22h-3.06Z"/>
    </g>
  </symbol>
  <symbol id="vk" viewBox="0 0 13 9">
    <g>
      <path d="M7.723 6.052c.442-.143 1.01.944 1.613 1.36.452.316.8.248.8.248l1.607-.023s.84-.052.444-.72c-.033-.055-.233-.495-1.197-1.4-1.009-.945-.872-.792.342-2.427.74-.997 1.035-1.606.942-1.866-.088-.25-.632-.184-.632-.184l-1.811.012c-.177 0-.326.055-.395.239 0 .002-.287.771-.669 1.425C7.961 4.1 7.64 4.174 7.506 4.087c-.306-.2-.229-.804-.229-1.233 0-1.342.2-1.9-.391-2.045-.198-.049-.343-.08-.847-.085-.645-.01-1.192 0-1.502.153-.206.103-.364.33-.268.342.12.017.39.074.535.272.185.255.18.828.18.828s.106 1.58-.25 1.775c-.245.135-.58-.14-1.298-1.396-.367-.643-.645-1.353-.645-1.353s-.054-.132-.15-.204c-.117-.086-.279-.113-.279-.113l-1.72.01s-.258.008-.353.122c-.084.101-.007.31-.007.31S1.63 4.655 3.155 6.26c1.398 1.474 2.987 1.376 2.987 1.376h.72s.218-.025.329-.144c.103-.111.099-.32.099-.32s-.015-.977.433-1.12Z"/>
    </g>
  </symbol>
  <symbol id="ok" viewBox="0 0 10 17">
    <g>
      <path d="M4.68 2.889c.899 0 1.63.754 1.63 1.682 0 .924-.731 1.679-1.63 1.679-.898 0-1.629-.755-1.629-1.68 0-.927.73-1.681 1.63-1.681Zm0 5.74c2.17 0 3.935-1.82 3.935-4.058C8.615 2.33 6.851.509 4.68.509 2.51.509.748 2.33.748 4.57.748 6.808 2.51 8.63 4.68 8.63Zm1.592 3.314a7.29 7.29 0 0 0 2.284-.978c.538-.349.7-1.084.362-1.64a1.13 1.13 0 0 0-1.59-.374 4.866 4.866 0 0 1-5.297 0 1.127 1.127 0 0 0-1.589.375 1.213 1.213 0 0 0 .363 1.64 7.29 7.29 0 0 0 2.284.977l-2.2 2.269a1.218 1.218 0 0 0 0 1.682c.227.231.52.349.814.349.295 0 .59-.118.818-.35l2.16-2.229 2.162 2.23c.449.466 1.177.466 1.629 0 .45-.464.45-1.219 0-1.682l-2.2-2.269Z"/>
    </g>
  </symbol>
  <symbol id="reddit" viewBox="0 0 14 14">
    <g>
      <path d="M8.85.556c-.444 0-.862.226-1.13.551-.269.326-.416.723-.524 1.142-.17.673-.224 1.42-.236 2.093a7.317 7.317 0 0 0-3.327 1.027c-.382-.32-.842-.5-1.283-.494-.503.004-.98.22-1.334.665-.678.85-.6 2.238.185 3.064a4.172 4.172 0 0 0-.084.78c0 2.796 2.858 5.06 6.383 5.06s6.383-2.266 6.383-5.06c0-.264-.036-.526-.084-.78.785-.826.863-2.215.185-3.064a1.697 1.697 0 0 0-1.334-.665c-.44-.005-.901.173-1.283.494a7.313 7.313 0 0 0-3.31-1.027c.017-.62.061-1.265.186-1.75.078-.305.171-.526.27-.647.1-.122.171-.172.338-.172.36 0 .407.117.625.4.11.143.236.32.439.495.202.173.502.323.827.323V1.773c-.09 0-.108-.002-.169-.057-.06-.054-.145-.18-.27-.342-.249-.326-.732-.818-1.452-.818Zm3.513.114c-.84 0-1.52.766-1.52 1.712 0 .947.68 1.712 1.52 1.712s1.52-.765 1.52-1.712c0-.946-.68-1.712-1.52-1.712Zm0 .609c.54 0 .98.494.98 1.103s-.44 1.104-.98 1.104-.98-.495-.98-1.104c0-.609.44-1.103.98-1.103ZM7.5 5.293c2.991 0 5.522 1.877 5.522 4.09 0 2.217-2.531 4.091-5.522 4.091S1.978 11.6 1.978 9.384c0-2.214 2.531-4.09 5.522-4.09Zm-5.133.552c.15.002.306.04.455.114a4.986 4.986 0 0 0-1.266 1.598c-.203-.47-.148-1.058.101-1.37a.877.877 0 0 1 .71-.342Zm10.266 0a.877.877 0 0 1 .71.342c.249.312.304.9.1 1.37a4.984 4.984 0 0 0-1.265-1.598c.15-.074.305-.112.455-.114ZM5.34 7.367c-.54 0-.98.495-.98 1.103 0 .61.44 1.104.98 1.104s.979-.495.979-1.104c0-.608-.44-1.103-.98-1.103Zm4.322 0c-.54 0-.979.495-.979 1.103 0 .61.44 1.104.98 1.104s.979-.495.979-1.104c0-.608-.44-1.103-.98-1.103Zm-4.846 3.748c.344.801 1.408 1.58 2.685 1.58 1.277 0 2.358-.779 2.702-1.58-.625.454-1.61.761-2.702.761-1.091 0-2.06-.307-2.685-.761Z"/>
    </g>
  </symbol>
  <symbol id="arrow-left" viewBox="0 0 18 34">
    <g>
      <path d="M17 1 1 17l16 16" stroke="#AFAFAF"/></svg>
    </g>
  </symbol>

</svg>
